X: 1
T: Ievan's Polkka
R: polka
M: 2/4
L: 1/8
K: Bmin
B>B Bc|dB Bd|cA Ac|d/c/B/A/ BF|B>B Bc|dB B2|ef/e/ dc|B2 B2:|
|:f>d df|ec cd|ef/e/ dc|Bc de|f>d df|ec cd|ef/e/ dc|B2 B2:|


Tune 418	Setting 26165

